X: 1
T: Boy from Ireland, The
T: Buachaill ón Éirne
C: Trad
R: Waltz
M: 3/4
L: 1/8
K: G
Z: ABC transcription by Verge Roller
r: 24
GA | "G" B3 A B2 | "C" A2 G2 E2 | "G" D3 D D2 | "C" E2 G2 A2 | "G" G6- | "G" G4 D2 |"G" G3 A B2 | "D" c2 B2 A2 |
"G" d3 d d2 | "Em" B2 G2 B2 | "D" A6- | A4 d2 | "G" d3 B A2 | G2 A2 B2 | "C" c3 d e2 | "G" d2 B2 G2 |
"D" A6- | A4 GA | "G" B3 A B2 | "C" A2 G2 E2 | "G" D3 D D2 | "C" E2 G2 A2 | "G" G6- | "G" G4 |]
